assets/svg/networks/wallet_usdc.svg

<svg width="36" height="36" viewBox="0 0 36 36" fill="none" xmlns="http://www.w3.org/2000/svg">
<g clip-path="url(#clip0_19002_45696)">
<rect width="36" height="36" rx="10" fill="#3E73C4"/>
<path d="M22.5248 20.3895C22.5248 18 21.0848 17.181 18.2048 16.839C16.1483 16.5656 15.7376 16.02 15.7376 15.0638C15.7376 14.1075 16.4239 13.4933 17.7941 13.4933C19.0283 13.4933 19.7145 13.9028 20.0565 14.9276C20.0921 15.0267 20.1573 15.1125 20.2432 15.1735C20.3291 15.2344 20.4316 15.2676 20.5369 15.2685H21.6338C21.6971 15.2702 21.7601 15.259 21.819 15.2356C21.8779 15.2122 21.9315 15.1771 21.9764 15.1324C22.0213 15.0877 22.0567 15.0343 22.0804 14.9755C22.104 14.9167 22.1155 14.8537 22.1141 14.7904V14.7229C21.9801 13.9814 21.6049 13.3049 21.0469 12.7986C20.4889 12.2922 19.7792 11.9843 19.0283 11.9228V10.2848C19.0283 10.0114 18.8224 9.80663 18.4804 9.738H17.451C17.1776 9.738 16.9718 9.94275 16.9031 10.2848V11.8553C14.8455 12.1275 13.5439 13.4933 13.5439 15.201C13.5439 17.4533 14.9141 18.3409 17.7941 18.6829C19.7145 19.0238 20.331 19.4344 20.331 20.5268C20.331 21.618 19.3714 22.3695 18.0686 22.3695C16.2855 22.3695 15.669 21.6191 15.4631 20.5943C15.3956 20.322 15.1886 20.1848 14.9828 20.1848H13.8173C13.754 20.1832 13.6911 20.1945 13.6323 20.218C13.5735 20.2415 13.5202 20.2766 13.4754 20.3213C13.4306 20.366 13.3953 20.4193 13.3717 20.478C13.3481 20.5367 13.3366 20.5996 13.338 20.6629V20.7304C13.6114 22.4381 14.7094 23.6666 16.9718 24.0086V25.6478C16.9718 25.92 17.1776 26.1259 17.5196 26.1934H18.549C18.8224 26.1934 19.0283 25.9886 19.0969 25.6478V24.0075C21.1545 23.6666 22.5248 22.2323 22.5248 20.3884V20.3895Z" fill="white"/>
<path d="M14.5035 27.5591C9.15521 25.6466 6.41246 19.7066 8.40146 14.4495C9.42971 11.5807 11.6921 9.39713 14.5035 8.37225C14.778 8.23612 14.9141 8.03138 14.9141 7.68938V6.73313C14.9141 6.46088 14.778 6.25613 14.5035 6.1875C14.4348 6.1875 14.2976 6.1875 14.229 6.255C12.6859 6.73686 11.2535 7.51919 10.0141 8.55694C8.77463 9.59469 7.75273 10.8674 7.00718 12.3017C6.26164 13.736 5.80717 15.3036 5.66997 16.9143C5.53276 18.525 5.71551 20.1469 6.20771 21.6866C7.44071 25.5116 10.3893 28.4479 14.229 29.6764C14.5035 29.8125 14.778 29.6764 14.8455 29.403C14.9141 29.3355 14.9141 29.2657 14.9141 29.1296V28.1734C14.9141 27.9686 14.7093 27.6964 14.5035 27.5591ZM21.771 6.25612C21.4965 6.11887 21.222 6.25612 21.1545 6.52837C21.0858 6.597 21.0858 6.66563 21.0858 6.80175V7.758C21.0858 8.03137 21.2906 8.30362 21.4965 8.44087C26.8447 10.3534 29.5875 16.2934 27.5985 21.5505C26.5702 24.4193 24.3078 26.6029 21.4965 27.6278C21.222 27.7639 21.0858 27.9686 21.0858 28.3106V29.2669C21.0858 29.5391 21.222 29.7439 21.4965 29.8125C21.5651 29.8125 21.7023 29.8125 21.771 29.745C23.314 29.2631 24.7464 28.4808 25.9859 27.4431C27.2253 26.4053 28.2472 25.1326 28.9927 23.6983C29.7383 22.264 30.1927 20.6964 30.3299 19.0857C30.4672 17.475 30.2844 15.8531 29.7922 14.3134C28.5592 10.4209 25.542 7.48462 21.771 6.25612Z" fill="white"/>
</g>
<defs>
<clipPath id="clip0_19002_45696">
<rect width="36" height="36" fill="white"/>
</clipPath>
</defs>
</svg>

<svg xmlns="http://www.w3.org/2000/svg" width="36" height="36" fill="none"><g clip-path="url(#a)"><rect width="36" height="36" fill="#3E73C4" rx="10"/><path fill="#fff" d="M22.525 20.39c0-2.39-1.44-3.209-4.32-3.551-2.057-.273-2.467-.819-2.467-1.775 0-.957.686-1.57 2.056-1.57 1.234 0 1.92.409 2.262 1.434a.515.515 0 0 0 .48.34h1.098a.47.47 0 0 0 .48-.478v-.067a3.42 3.42 0 0 0-3.086-2.8v-1.638c0-.274-.206-.478-.548-.547h-1.029c-.273 0-.48.205-.548.547v1.57c-2.057.272-3.36 1.638-3.36 3.346 0 2.252 1.371 3.14 4.251 3.482 1.92.34 2.537.751 2.537 1.844 0 1.091-.96 1.842-2.262 1.842-1.783 0-2.4-.75-2.606-1.775-.067-.272-.274-.41-.48-.41h-1.166a.467.467 0 0 0-.479.479v.067c.273 1.708 1.371 2.937 3.634 3.279v1.639c0 .272.206.478.548.545h1.029c.273 0 .48-.204.548-.545v-1.64c2.057-.341 3.428-1.776 3.428-3.62z"/><path fill="#fff" d="M14.504 27.56C9.155 25.646 6.412 19.706 8.4 14.45c1.029-2.87 3.291-5.053 6.103-6.078.274-.136.41-.34.41-.683v-.956c0-.272-.136-.477-.41-.545-.07 0-.206 0-.275.067a12.256 12.256 0 0 0-8.021 15.432c1.233 3.825 4.181 6.76 8.021 7.99.275.136.549 0 .617-.274.068-.067.068-.137.068-.273v-.957c0-.204-.205-.477-.41-.614M21.77 6.255c-.274-.137-.549 0-.617.272-.068.069-.068.138-.068.274v.956c0 .273.205.546.41.683 5.349 1.912 8.092 7.852 6.103 13.11-1.029 2.868-3.291 5.052-6.102 6.077-.275.136-.411.34-.411.683v.956c0 .272.136.477.41.546.07 0 .206 0 .275-.068a12.26 12.26 0 0 0 8.021-15.432c-1.233-3.892-4.25-6.828-8.021-8.057"/></g><defs><clipPath id="a"><path fill="#fff" d="M0 0h36v36H0z"/></clipPath></defs></svg>
